X:1
T:Lamb of God (4-Part Round) - LAMB OF GOD (SWERD)
T:Lamb of God (4-Part Round) - LAMB OF GOD (SWERD)
T:Scott Werdebaugh, 2006
T:Scott Werdebaugh, 2006
T:Copyright © 2006 by Scott Werdebaugh and New Heart Music - May copy and use freely for Christian worship and devotions with no alterations. All Other Rights Reserved.
T:Copyright © 2006 by Scott Werdebaugh and New Heart Music - May copy and use freely for Christian worship and devotions with no alterations. All Other Rights Reserved.
C:Scott Werdebaugh, 2006
Z:Copyright © 2006 by Scott Werdebaugh and New Heart Music - May copy and use freely for
Z:Christian worship and devotions with no alterations. All Other Rights Reserved.
%%score 1 ( 2 3 ) 4 5
L:1/8
Q:1/4=164
M:2/2
K:C
V:1 treble 
V:2 treble 
V:3 treble 
V:4 bass 
V:5 bass 
V:1
"^Worshipfully""^Sopranos 1 & 2" [Ec]4 [Fd]4 | [Ge]8 | [ca]4 [Bg]4 | [Ge]8 | [Ge]4 [Bg]4 | %5
w: Lamb of|God;|Lamb of|God.|Lord, You|
 [Ge]6 [Ec]2 | [Ge]4 [Fd]4 | [Ec]8 || [Ec]4 [Fd]4 | [Ge]8 | [ca]4 [Bg]4 | [Ge]8 | [Ge]4 [Bg]4 | %13
w: are The|Lamb of|God.|Lamb of|God;|Lamb of|God.|Lord, You|
 [Ge]6 [Ec]2 | [Ge]4 [Fd]4 | [Ec]8 || [Ec]4 [Fd]4 | [Ge]8 | [ca]4 [Bg]4 | [Ge]8 | [Ge]4 [Bg]4 | %21
w: are The|Lamb of|God.|Lamb of|God;|Lamb of|God.|Lord, You|
 [Ge]6 [Ec]2 | [Ge]4 [Fd]4 | [Ec]8 | z8 | z8 | z8 | z8 | z8 | z8 |] %30
w: are The|Lamb of|God.|||||||
V:2
"^Altos 1 & 2" z8 | z8 | [CA]4 [B,G]4 | [CE]8 | [CE]4 [DG]4 | [EG]8 | [CE]4 [B,D]4 | C6 C2 || %8
w: ||Lamb of|God;|Lamb of|God.|Lord, You|are The|
 C4 [B,D]4 | [CE]8 | [CA]4 [B,G]4 | [CE]8 | [CE]4 [DG]4 | [EG]8 | [CE]4 [B,D]4 | C6 C2 || %16
w: Lamb of|God.|Lamb of|God;|Lamb of|God.|Lord, You|are The|
 C4 [B,D]4 | [CE]8 | [CA]4 [B,G]4 | [CE]8 | [CE]4 [DG]4 | [EG]8 | [CE]4 [B,D]4 | C6 C2 | %24
w: Lamb of|God.|Lamb of|God;|Lamb of|God.|Lord, You|are The|
 C4 [B,D]4 | [CE]8 | z8 | z8 | z8 | z8 |] %30
w: Lamb of|God.|||||
V:3
 x8 | x8 | x8 | x8 | x8 | x8 | x8 | C6 C2 || C4 x4 | x8 | x8 | x8 | x8 | x8 | x8 | C6 C2 || C4 x4 | %17
 x8 | x8 | x8 | x8 | x8 | x8 | C6 C2 | C4 x4 | x8 | x8 | x8 | x8 | x8 |] %30
V:4
 z8 | z8 |"^Tenors 1 & 2" z8 | z8 | [C,C]4 [D,D]4 | [E,E]8 | [A,A]4 [G,G]4 | [E,E]8 || %8
w: ||||Lamb of|God;|Lamb of|God.|
 [E,E]4 [G,G]4 | [E,E]6 [C,C]2 | [E,E]4 [D,D]4 | [E,E]8 | [C,C]4 [D,D]4 | [E,E]8 | [A,A]4 [G,G]4 | %15
w: Lord, You|are The|Lamb of|God.|Lamb of|God;|Lamb of|
 [E,E]8 || [E,E]4 [G,G]4 | [E,E]6 [C,C]2 | [E,E]4 [D,D]4 | [E,E]8 | [C,C]4 [D,D]4 | [E,E]8 | %22
w: God.|Lord, You|are The|Lamb of|God.|Lamb of|God;|
 [A,A]4 [G,G]4 | [E,E]8 | [E,E]4 [G,G]4 | [E,E]6 [C,C]2 | [E,E]4 [D,D]4 | [E,E]8 | z8 | z8 |] %30
w: Lamb of|God.|Lord, You|are The|Lamb of|God.|||
V:5
 z8 | z8 | z8 | z8 | z8 |"^Basses" z8 | C,4 D,4 | E,8 || A,4 G,4 | E,8 | E,4 G,4 | C,6 C,2 | %12
w: ||||||Lamb of|God;|Lamb of|God.|Lord, You|are The|
 E,4 D,4 | C,8 | C,4 D,4 | E,8 || A,4 G,4 | E,8 | E,4 G,4 | C,6 C,2 | E,4 D,4 | C,8 | C,4 D,4 | %23
w: Lamb of|God.|Lamb of|God;|Lamb of|God.|Lord, You|are The|Lamb of|God.|Lamb of|
 E,8 | A,4 G,4 | E,8 | E,4 G,4 | C,6 C,2 | E,4 D,4 | C,8 |] %30
w: God;|Lamb of|God.|Lord, You|are The|Lamb of|God.|

